svg/system/enter_door_fill.svg

<?xml version="1.0" encoding="UTF-8"?>
<svg width="24px" height="24px" viewBox="0 0 24 24" version="1.1" xmlns="http://www.w3.org/2000/svg" xmlns:xlink="http://www.w3.org/1999/xlink">
    <title>enter_door_fill</title>
    <g id="页面-1" stroke="none" stroke-width="1" fill="none" fill-rule="evenodd">
        <g id="System" transform="translate(-864.000000, -240.000000)">
            <g id="enter_door_fill" transform="translate(864.000000, 240.000000)">
                 <path d="M24,0 L24,24 L0,24 L0,0 L24,0 Z M12.5934901,23.257841 L12.5819402,23.2595131 L12.5108777,23.2950439 L12.4918791,23.2987469 L12.4918791,23.2987469 L12.4767152,23.2950439 L12.4056548,23.2595131 C12.3958229,23.2563662 12.3870493,23.2590235 12.3821421,23.2649074 L12.3780323,23.275831 L12.360941,23.7031097 L12.3658947,23.7234994 L12.3769048,23.7357139 L12.4804777,23.8096931 L12.4953491,23.8136134 L12.4953491,23.8136134 L12.5071152,23.8096931 L12.6106902,23.7357139 L12.6232938,23.7196733 L12.6232938,23.7196733 L12.6266527,23.7031097 L12.609561,23.275831 C12.6075724,23.2657013 12.6010112,23.2592993 12.5934901,23.257841 L12.5934901,23.257841 Z M12.8583906,23.1452862 L12.8445485,23.1473072 L12.6598443,23.2396597 L12.6498822,23.2499052 L12.6498822,23.2499052 L12.6471943,23.2611114 L12.6650943,23.6906389 L12.6699349,23.7034178 L12.6699349,23.7034178 L12.678386,23.7104931 L12.8793402,23.8032389 C12.8914285,23.8068999 12.9022333,23.8029875 12.9078286,23.7952264 L12.9118235,23.7811639 L12.8776777,23.1665331 C12.8752882,23.1545897 12.8674102,23.1470016 12.8583906,23.1452862 L12.8583906,23.1452862 Z M12.1430473,23.1473072 C12.1332178,23.1423925 12.1221763,23.1452606 12.1156365,23.1525954 L12.1099173,23.1665331 L12.0757714,23.7811639 C12.0751323,23.7926639 12.0828099,23.8018602 12.0926481,23.8045676 L12.108256,23.8032389 L12.3092106,23.7104931 L12.3186497,23.7024347 L12.3186497,23.7024347 L12.3225043,23.6906389 L12.340401,23.2611114 L12.337245,23.2485176 L12.337245,23.2485176 L12.3277531,23.2396597 L12.1430473,23.1473072 Z" id="MingCute" fill-rule="nonzero"></path>
                <path d="M14.1358,3 L12.2586,4.87728 C11.134344,6.0014688 11.0888208,7.79602944 12.1223843,8.97452923 L12.2572,9.11854 L14.3772,11.2413 C15.30953,12.174865 16.70394,12.3657628 17.8253167,11.8135646 L18,11.7202 L18,19 L20,19 C20.5523,19 21,19.4477 21,20 C21,20.51285 20.613973,20.9355092 20.1166239,20.9932725 L20,21 L4,21 C3.44772,21 3,20.5523 3,20 C3,19.48715 3.38604429,19.0644908 3.88337975,19.0067275 L4,19 L4,5 C4,3.94563773 4.81587733,3.08183483 5.85073759,3.00548573 L6,3 L14.1358,3 Z M13.5,13 C12.6716,13 12,13.6716 12,14.5 C12,15.3284 12.6716,16 13.5,16 C14.3284,16 15,15.3284 15,14.5 C15,13.6716 14.3284,13 13.5,13 Z M15.7927,4.17156 C16.1832,3.78103 16.8164,3.78103 17.2069,4.17156 C17.5674538,4.53204 17.5951888,5.09926651 17.2901047,5.49156153 L17.2069,5.58577 L16.7944,5.99827 L19.9998,5.99827 C20.5521,5.99827 20.9998,6.44599 20.9998,6.99827 C20.9998,7.51111071 20.613773,7.93377786 20.1164239,7.99154234 L19.9998,7.99827 L16.7915,7.99827 L17.2074,8.4147 C17.5977,8.80548 17.5973,9.43864 17.2065,9.82891 C16.8457615,10.1891777 16.2785663,10.2165498 15.8864585,9.91124644 L15.7923,9.82799 L13.6723,7.70525 C13.3122077,7.34469615 13.2846787,6.77776219 13.5896344,6.38565419 L13.6728,6.29149 L15.7927,4.17156 Z" id="形状" fill="#09244B"></path>
            </g>
        </g>
    </g>
</svg>

<svg xmlns="http://www.w3.org/2000/svg" width="24" height="24"><g fill="none" fill-rule="evenodd"><path d="M24 0v24H0V0h24ZM12.593 23.258l-.011.002-.071.035-.02.004-.014-.004-.071-.035c-.01-.004-.019-.001-.024.005l-.004.01-.017.428.005.02.01.013.104.074.015.004.012-.004.104-.074.012-.016.004-.017-.017-.427c-.002-.01-.009-.017-.017-.018Zm.265-.113-.013.002-.185.093-.01.01-.003.011.018.43.005.012.008.007.201.093c.012.004.023 0 .029-.008l.004-.014-.034-.614c-.003-.012-.01-.02-.02-.022Zm-.715.002a.023.023 0 0 0-.027.006l-.006.014-.034.614c0 .012.007.02.017.024l.015-.002.201-.093.01-.008.004-.011.017-.43-.003-.012-.01-.01-.184-.092Z"/><path fill="#09244B" d="m14.136 3-1.877 1.877a3 3 0 0 0-.137 4.098l.135.144 2.12 2.122a3.001 3.001 0 0 0 3.448.573L18 11.72V19h2a1 1 0 0 1 .117 1.993L20 21H4a1 1 0 0 1-.117-1.993L4 19V5a2 2 0 0 1 1.85-1.995L6 3h8.136ZM13.5 13a1.5 1.5 0 1 0 0 3 1.5 1.5 0 0 0 0-3Zm2.293-8.828a1 1 0 0 1 1.497 1.32l-.083.094-.413.412H20a1 1 0 0 1 .116 1.994L20 7.998H16.79l.416.417a1 1 0 0 1-1.32 1.496l-.095-.083-2.12-2.123a1 1 0 0 1-.082-1.32l.083-.094 2.12-2.12Z"/></g></svg>
